images/personal_account.svg

<svg width="13" height="15" viewBox="0 0 13 15" fill="none" xmlns="http://www.w3.org/2000/svg">
<path d="M12 14V12.5556C12 11.7894 11.7103 11.0546 11.1945 10.5128C10.6788 9.97103 9.97935 9.66667 9.25 9.66667H3.75C3.02065 9.66667 2.32118 9.97103 1.80546 10.5128C1.28973 11.0546 1 11.7894 1 12.5556V14M9.25 3.88889C9.25 5.48438 8.01878 6.77778 6.5 6.77778C4.98122 6.77778 3.75 5.48438 3.75 3.88889C3.75 2.2934 4.98122 1 6.5 1C8.01878 1 9.25 2.2934 9.25 3.88889Z" stroke="#FCFCFC" stroke-width="2" stroke-linecap="round" stroke-linejoin="round"/>
</svg>

<svg width="13" height="15" fill="none" xmlns="http://www.w3.org/2000/svg"><path d="M12 14v-1.4444c0-.7662-.2897-1.501-.8055-2.0428-.5157-.5418-1.2151-.8461-1.9445-.8461h-5.5c-.7294 0-1.4288.3043-1.9445.8461C1.2897 11.0546 1 11.7894 1 12.5556V14M9.25 3.8889c0 1.5955-1.2312 2.8889-2.75 2.8889s-2.75-1.2934-2.75-2.889C3.75 2.2935 4.9812 1 6.5 1s2.75 1.2934 2.75 2.8889Z" stroke="#FCFCFC" stroke-width="2" stroke-linecap="round" stroke-linejoin="round"/></svg>
